public/library/fogo-icon-dark.svg

<svg xmlns="http://www.w3.org/2000/svg" overflow="visible" viewBox="0 0 81.012 26.392"><path fill="#fff" d="M16.192 0H6.999L5.681 5.283h-3.97L.042 11.984a1.41 1.41 0 0 0 1.362 1.75h3.36L1.611 26.392l10.716-11.336c.847-.898.214-2.378-1.018-2.378H6.185l1.578-6.339h8.647l1.141-4.588A1.411 1.411 0 0 0 16.191 0Zm12.499 19.851h-3.185V6.136h9.992v2.777h-6.807v2.64h6.198v2.777h-6.198Zm14.893.204q-2.116 0-3.701-.872a6.16 6.16 0 0 1-2.463-2.456q-.88-1.582-.88-3.732c0-1.434.294-2.696.88-3.75a6.1 6.1 0 0 1 2.463-2.447q1.583-.863 3.701-.863c1.413 0 2.661.285 3.718.854a6 6 0 0 1 2.455 2.439q.873 1.583.872 3.767c0 1.456-.294 2.68-.881 3.742a6.1 6.1 0 0 1-2.463 2.456q-1.583.863-3.701.863Zm.017-2.777q1.845 0 2.844-1.168 1-1.168 1.001-3.115c0-1.3-.335-2.35-1.001-3.123q-.998-1.16-2.861-1.16c-1.241 0-2.182.386-2.854 1.159q-1.007 1.16-1.007 3.106c0 1.298.336 2.354 1.007 3.134q1.007 1.168 2.871 1.167m15.069 2.777q-2 0-3.522-.889a6.2 6.2 0 0 1-2.379-2.481q-.853-1.59-.853-3.673c0-1.388.293-2.664.88-3.725a6.2 6.2 0 0 1 2.48-2.473q1.599-.88 3.717-.881 1.745 0 3.083.601a5.5 5.5 0 0 1 2.184 1.719q.846 1.119 1.067 2.674h-3.316q-.168-1.03-.966-1.608-.795-.576-2.048-.576-1.184.002-2.066.524a3.5 3.5 0 0 0-1.353 1.491q-.474.963-.473 2.285c0 .881.163 1.666.489 2.321a3.6 3.6 0 0 0 1.388 1.516q.897.533 2.117.533.899 0 1.599-.278.702-.279 1.109-.762c.264-.302.409-.691.407-1.092v-.407h-3.37v-2.437h4.25q1.116 0 1.677.534.556.531.558 1.6v5.282h-2.912v-1.455h-.085a3.08 3.08 0 0 1-1.405 1.244q-.913.416-2.253.415l-.003-.001Zm15.298 0q-2.117 0-3.702-.872a6.16 6.16 0 0 1-2.463-2.456q-.88-1.582-.88-3.732c0-1.434.294-2.696.88-3.75a6.1 6.1 0 0 1 2.463-2.447q1.584-.863 3.702-.863c1.412 0 2.661.285 3.716.854a6 6 0 0 1 2.457 2.439q.871 1.583.871 3.767c0 1.456-.295 2.68-.881 3.742a6.1 6.1 0 0 1-2.463 2.456q-1.582.863-3.7.863Zm.016-2.777q1.844 0 2.845-1.168.999-1.168.999-3.115c0-1.3-.334-2.35-1-3.123q-.999-1.16-2.86-1.16c-1.242 0-2.183.386-2.854 1.159q-1.007 1.16-1.007 3.106c0 1.298.335 2.354 1.007 3.134q1.006 1.168 2.87 1.167"/></svg>

<svg xmlns="http://www.w3.org/2000/svg" xmlns:xlink="http://www.w3.org/1999/xlink" viewBox="0 0 81.012 26.392" overflow="visible"><path d="M 16.192 0 L 6.999 0 L 5.681 5.283 L 1.711 5.283 L 0.042 11.984 C -0.01 12.191 -0.014 12.408 0.03 12.617 C 0.074 12.826 0.166 13.022 0.297 13.191 C 0.428 13.359 0.596 13.496 0.787 13.59 C 0.979 13.684 1.19 13.733 1.404 13.734 L 4.764 13.734 L 1.611 26.392 L 12.327 15.056 C 13.174 14.158 12.541 12.678 11.309 12.678 L 6.185 12.678 L 7.763 6.339 L 16.41 6.339 L 17.551 1.751 C 17.603 1.543 17.607 1.327 17.564 1.118 C 17.52 0.909 17.429 0.713 17.298 0.544 C 17.166 0.375 16.999 0.239 16.807 0.144 C 16.615 0.05 16.405 0.001 16.191 0 Z M 28.691 19.851 L 25.506 19.851 L 25.506 6.136 L 35.498 6.136 L 35.498 8.913 L 28.691 8.913 L 28.691 11.553 L 34.889 11.553 L 34.889 14.33 L 28.691 14.33 Z M 43.584 20.055 C 42.173 20.055 40.94 19.764 39.883 19.183 C 38.843 18.618 37.988 17.765 37.42 16.727 C 36.834 15.672 36.54 14.428 36.54 12.995 C 36.54 11.561 36.834 10.299 37.42 9.245 C 37.987 8.208 38.843 7.358 39.883 6.798 C 40.938 6.223 42.172 5.935 43.584 5.935 C 44.997 5.935 46.245 6.22 47.302 6.789 C 48.341 7.344 49.195 8.192 49.757 9.228 C 50.339 10.283 50.629 11.539 50.629 12.995 C 50.629 14.451 50.335 15.675 49.748 16.737 C 49.182 17.777 48.327 18.63 47.285 19.193 C 46.229 19.768 44.996 20.056 43.584 20.056 Z M 43.601 17.278 C 44.831 17.278 45.779 16.889 46.445 16.11 C 47.112 15.332 47.446 14.293 47.446 12.995 C 47.446 11.695 47.111 10.645 46.445 9.872 C 45.779 9.098 44.826 8.712 43.584 8.712 C 42.343 8.712 41.402 9.098 40.73 9.871 C 40.059 10.645 39.723 11.68 39.723 12.977 C 39.723 14.275 40.059 15.331 40.73 16.111 C 41.401 16.89 42.359 17.279 43.601 17.278 Z M 58.67 20.055 C 57.337 20.055 56.163 19.759 55.148 19.166 C 54.137 18.579 53.313 17.719 52.769 16.685 C 52.2 15.625 51.916 14.4 51.916 13.012 C 51.916 11.624 52.209 10.348 52.796 9.287 C 53.368 8.241 54.229 7.382 55.276 6.814 C 56.342 6.227 57.581 5.933 58.993 5.933 C 60.156 5.933 61.184 6.133 62.076 6.534 C 62.939 6.911 63.691 7.503 64.26 8.253 C 64.824 8.999 65.18 9.89 65.327 10.927 L 62.011 10.927 C 61.899 10.24 61.577 9.704 61.045 9.319 C 60.515 8.935 59.832 8.743 58.997 8.743 C 58.207 8.744 57.519 8.919 56.931 9.267 C 56.345 9.618 55.894 10.115 55.578 10.758 C 55.262 11.4 55.104 12.162 55.105 13.043 C 55.105 13.924 55.268 14.709 55.594 15.364 C 55.899 15.993 56.382 16.52 56.982 16.88 C 57.58 17.235 58.286 17.413 59.099 17.413 C 59.698 17.413 60.231 17.321 60.698 17.135 C 61.166 16.949 61.536 16.695 61.807 16.373 C 62.071 16.071 62.216 15.682 62.214 15.281 L 62.214 14.874 L 58.844 14.874 L 58.844 12.437 L 63.094 12.437 C 63.838 12.437 64.397 12.615 64.771 12.971 C 65.142 13.325 65.328 13.859 65.329 14.571 L 65.329 19.853 L 62.417 19.853 L 62.417 18.398 L 62.332 18.398 C 62.003 18.95 61.535 19.365 60.927 19.642 C 60.318 19.919 59.567 20.058 58.674 20.057 L 58.671 20.056 Z M 73.968 20.055 C 72.556 20.055 71.323 19.764 70.266 19.183 C 69.226 18.618 68.371 17.765 67.803 16.727 C 67.216 15.672 66.923 14.428 66.923 12.995 C 66.923 11.561 67.217 10.299 67.803 9.245 C 68.37 8.208 69.225 7.358 70.266 6.798 C 71.322 6.223 72.556 5.935 73.968 5.935 C 75.38 5.935 76.629 6.22 77.684 6.789 C 78.725 7.344 79.579 8.192 80.141 9.228 C 80.722 10.283 81.012 11.539 81.012 12.995 C 81.012 14.451 80.717 15.675 80.131 16.737 C 79.565 17.777 78.709 18.63 77.668 19.193 C 76.613 19.768 75.38 20.056 73.968 20.056 Z M 73.984 17.278 C 75.213 17.278 76.162 16.889 76.829 16.11 C 77.495 15.332 77.828 14.293 77.828 12.995 C 77.828 11.695 77.494 10.645 76.828 9.872 C 76.162 9.098 75.209 8.712 73.968 8.712 C 72.726 8.712 71.785 9.098 71.114 9.871 C 70.442 10.645 70.107 11.68 70.107 12.977 C 70.107 14.275 70.442 15.331 71.114 16.111 C 71.785 16.89 72.741 17.279 73.984 17.278 Z" fill="rgb(255,255,255)"></path></svg>
